icons/clojure.svg

<svg width="16" height="16" viewBox="0 0 16 16" fill="none" xmlns="http://www.w3.org/2000/svg">
<path d="M8.16938 1C6.45884 1 3.5 1.5 2 4C3.5 3 5.2224 3.2605 6.20735 3.69006C6.75928 3.46023 7.36482 3.33333 8 3.33333C10.5773 3.33333 12.6667 5.42267 12.6667 8C12.6667 9.35961 12.0852 10.5834 11.1574 11.4364C11.3578 11.478 11.5675 11.5 11.7857 11.5C13.5577 11.5 14.9905 9.99763 14.9905 8.14616C14.9905 8.14616 14.9921 8.14142 14.994 8.13735C14.9966 8.13163 14.9998 8.12468 15 8.12066C14.9841 4.19513 11.928 1 8.16938 1Z" fill="#567ED6"/>
<path d="M9.96924 10.8939C10.8933 10.2638 11.5 9.20276 11.5 8C11.5 6.067 9.933 4.5 8 4.5C7.8098 4.5 7.62314 4.51517 7.44117 4.54437C8.22836 5.37945 8.57334 6.57088 8.58375 7.99314C8.5921 9.13442 9.10492 10.2387 9.96924 10.8939Z" fill="#8FB3FD"/>
<path d="M4.84256 4.56364C3.91477 5.41657 3.33333 6.64038 3.33333 8C3.33333 10.5773 5.42267 12.6667 8 12.6667C8.69064 12.6667 9.34624 12.5166 9.93599 12.2474C10.9054 12.6894 12 13 14 12C12.6667 14.5 9.54116 15 7.83062 15C4.07199 15 1.01586 11.8049 1 7.87934C1.00018 7.87532 1.00339 7.86837 1.00602 7.86265C1.0079 7.85858 1.00948 7.85384 1.00948 7.85384C1.00948 6.00237 2.4423 4.5 4.21434 4.5C4.43247 4.5 4.64217 4.522 4.84256 4.56364Z" fill="#61AF30"/>
<path d="M6.03075 5.10614C6.78877 5.68067 7.27644 6.60072 7.39056 7.58819C6.62914 7.89231 5.57993 8.55264 4.94058 9.70129C4.65991 9.19764 4.5 8.6175 4.5 8C4.5 6.79723 5.10669 5.73617 6.03075 5.10614Z" fill="#61AF30"/>
<path d="M7.47752 8.82928C7.61983 9.80911 8.01542 10.7247 8.72703 11.4244C8.49249 11.4739 8.24929 11.5 8 11.5C7.14977 11.5 6.37034 11.1968 5.76393 10.6927C6.12265 9.75029 6.86118 9.15206 7.47752 8.82928Z" fill="#61AF30"/>
</svg>

<svg xmlns="http://www.w3.org/2000/svg" width="16" height="16" fill="none"><path fill="#567ED6" d="M8.17 1C6.458 1 3.5 1.5 2 4c1.5-1 3.222-.74 4.207-.31a4.667 4.667 0 0 1 4.95 7.746c.2.042.41.064.629.064 1.772 0 3.205-1.502 3.205-3.354l.003-.009c.003-.005.006-.012.006-.016C14.984 4.195 11.928 1 8.17 1Z"/><path fill="#8FB3FD" d="M9.97 10.894a3.5 3.5 0 0 0-2.528-6.35c.786.835 1.131 2.027 1.142 3.45.008 1.14.52 2.245 1.385 2.9Z"/><path fill="#61AF30" d="M4.843 4.564a4.667 4.667 0 0 0 5.093 7.684C10.906 12.688 12 13 14 12c-1.333 2.5-4.459 3-6.17 3C4.073 15 1.017 11.805 1 7.88c0-.005.003-.012.006-.017l.003-.01c0-1.85 1.433-3.353 3.205-3.353.218 0 .428.022.629.064Z"/><path fill="#61AF30" d="M6.03 5.106c.759.575 1.246 1.495 1.36 2.482-.76.304-1.81.965-2.45 2.113a3.496 3.496 0 0 1 1.09-4.595ZM7.478 8.83c.142.98.537 1.895 1.249 2.594a3.486 3.486 0 0 1-2.963-.732c.359-.942 1.097-1.54 1.714-1.863Z"/></svg>
